X:1
T:Sleep now, my muse - Kirbye
T:#
%%score { 1 | 2 } 3 4
L:1/8
Q:1/4=100
M:4/4
K:F
V:1 treble nm="Soprano I" snm="S"
V:2 treble 
V:3 treble nm="Alto" snm="A"
V:4 treble-8 nm="Tenor" snm="T"
V:1
 d4"^Sleep now, my muse" A2 B2 | A4 d2 f2- | f2 (ed) (^c2"^George Kirbye\n(1570-1634)" d2- | %3
w: Sleep now my|muse, and hence\-|* forth * take *|
 d2) ^c2 d4 |[M:4/4] D2 A4 (GF) | (E2 D4) ^C2 | D4 z2 A2 | A2 G2 A2 e2 | f6 (ed) | (^c2 d4) c2 | %10
w: * thy rest,|and hence- forth *|take * thy|rest, sleep|now my muse, and|hence- forth *|take * thy|
 d4 z2 d2 | e3 e f4- | f4 f2 f2- | f2 e2 d2 ^c2 | d8 | ^c4 z4 | z4 z2 g2- | g2 f2 e4 | d4 z4 | %19
w: rest, Which|all too long|* thy- self|* in vain had|wast-|ed.|Let|* it suf-|fice,|
 z2 f2 e2 d2 | c4 z4 | z2 c2 _e4- | e2 d2 c4- | c4 B4 | A8 | z4 z2 d2 | B3 B G4 | z4 z2 g2 | %28
w: let it suf-|fice,|I still|* must live|* op-|pressed,|And|of my pains,|and|
 _e3 e c4 | _e2 d4 c2 | c2 B2 A4 | G4 z2 d2 | B3 B G4 | z2 d2 B3 B | _e2 d2 d2 c2 | c2 A2 B4 | %36
w: of my pains|the fruit must|ne'er be tast-|ed, and|of my pains,|and of my|pains the fruit must|ne'er be tast-|
 A4 f2 e2- | ed (d4 ^c2) | d4 z2 d2 | A2 B2 A4 | z8 | z2 f4 e2- | e2 d2 ^c4 | z2 A2 d3 d | %44
w: ed, must ne'er|* be tast\- *|ed. Then|sleep my muse,||then sleep|* my muse,|fate can- not|
 c2 B2 A4 | z2 e2 f2 e2 | ^c4 z4 | z2 A2 F2 G2 | A8- | A4 A4 | A8 | z4 z2 A2 | c2 d2 e4 | %53
w: be with- stood;|It's bet- ter|sleep|than wake and|do|* no|good.|Then|sleep my muse,|
 z2 d2 A2 B2 | A8 | z2 F2 B3 B | A2 G2 ^F4 | z8 | z2 e2 f2 e2 | ^c4 z4 | z2 e2 ^c2 d2 | e3 e A4 | %62
w: then sleep my|muse,|fate can- not|be with- stood;||It's bet- ter|sleep|than wake and|do no good,|
 z2 e2 f2 e2 | ^c4 z4 | z2 A2 F2 G2 | A8- | A4 A4 | A8 |] %68
w: it's bet- ter|sleep|than wake and|do|* no|good.|
V:2
 z8 | z8 | z8 | z8 |[M:4/4] d4 A2 B2 | A4 z2 e2 | f6 (ed) | (^c2 d4) c2 | d2 A2 F2 G2 | A2 B2 A4 | %10
w: ||||Sleep now my|muse, and|hence- forth *|take * thy|rest, and hence- forth|take thy rest,|
 z2 A2 =B3 B | c8 | c4 c4- | c2 c2 _B2 A2 | A8 | A4 z2 B2- | B2 A4 G2 | A8 | z2 d2 c2 B2 | A4 z4 | %20
w: Which all too|long|thy- self|* in vain had|wast-|ed. Let|* it suf-|fice,|let it suf-|fice,|
 z4 z2 d2 | _e6 d2 | c4 _e4 | d8- | d8 | z2 d2 B3 B | G4 z2 g2 | _e3 e c4 | z2 g2 g4- | %29
w: I|still must|live op-|pressed,||And of my|pains, and|of my pains|the fruit|
 g2 f2 f2 _e2 | d4 d2 d2 | B3 B G4- | G4 z2 d2 | B3 B G4 | z8 | z2 f2 d2 =e2 | (^c2 d4) (=cB) | %37
w: * must ne'er be|tast- ed, and|of my pains,|* and|of my pains||the fruit must|ne'er * be *|
 A8 | A8 | z4 z2 A2 | c2 d2 e4 | z2 d2 A2 B2 | A8 | z2 F2 B3 B | A2 G2 ^F4 | z4 z4 | z2 e2 f2 e2 | %47
w: tast-|ed.|Then|sleep my muse,|then sleep my|muse,|fate can- not|be with- stood;||It's bet- ter|
 ^c4 z2 d2 | f2 e4 d2- | d2 (^c=B c4) | d4 z2 d2 | A2 B2 A4 | z8 | z2 f4 e2- | e2 d2 ^c4 | %55
w: sleep than|wake and do|* no * *|good. Then|sleep my muse,||then sleep|* my muse,|
 z2 A2 d3 d | =c2 B2 A4 | z2 e2 f2 e2 | ^c4 z4 | z2 A2 F2 G2 | A3 A A4 | z2 e2 f2 e2 | ^c4 z4 | %63
w: fate can- not|be with- stood;|It's bet- ter|sleep|than wake and|do no good,|it's bet- ter|sleep,|
 z2 e2 f2 e2 | ^c4 z2 d2 | f2 e4 d2- | d2 (^c=B c4) | d8 |] %68
w: it's bet- ter|sleep than|wake and do|* no * *|good.|
V:3
 z8 | z8 | A4 E2 F2 | E4 z2 D2 | F6 (ED) | ^C2 D2 E4 | D2 A4 (GF) | E2 (D2 E4) | D8 | z4 z2 E2 | %10
w: ||Sleep now my|muse, and|hence- forth *|take thy rest,|and hence- forth *|take thy *|rest,|Which|
 ^F3 F G4- | G4 A4 | A8 | z2 G2 G2 E2 | F8 | E4 z4 | F4 E2 D2 | ^C2 D4 C2 | D4 E4 | F4 z2 B2 | %20
w: all too long|* thy-|self|in vain had|wast-|ed.|Let it suf-|fice, let it|* suf-|fice, let|
 A2 G2 F4 | z4 G4 | _A6 G2 | ^F4 (G4- | G4 ^F4) | G8- | G8 | z2 G2 _E3 E | C8 | z2 F2 D2 G2 | %30
w: it suf- fice,|I|still must|live op\-||pressed,||And of my|pains|the fruit must|
 ^F2 G4 F2 | G2 D2 B,3 B, | G,8 | z4 z2 _E2 | C2 D2 B,2 C2 | D4 D4 | z2 F2 D2 E2 | ^C2 D2 E4 | %38
w: ne'er be tast-|ed, and of my|pains|the|fruit must ne'er be|tast- ed,|the fruit must|ne'er be tast-|
 ^F4 z2 D2 | =F2 G2 A2 F2 | (E2 D4) ^C2 | D4 z2 G2 | E2 F2 E4 | z8 | z4 z2 D2 | A3 A F2 G2 | %46
w: ed. Then|sleep my muse, then|sleep * my|muse, then|sleep my muse,||fate|can- not be with-|
 A2 E2 A2 G2 | E4 z4 | z2 E2 ^C2 D2 | E6 E2 | ^F4 z2 D2 | =F2 G2 A2 F2 | E2 (D4 ^C2) | D4 z2 G2 | %54
w: stood; It's bet- ter|sleep,|than wake and|do no|good. Then|sleep my muse, then|sleep my *|muse, then|
 E2 F2 E4 | z8 | z4 z2 D2 | A3 A F2 G2 | A2 E2 A2 G2 | E4 z2 D2 | F2 E4 D2- | D2 ^C2 D2 z2 | %62
w: sleep my muse,||fate|can- not be with-|stood; It's bet- ter|sleep than|wake and do|* no good,|
 z2 A,2 D2 ^C2 | A,2 E2 A2 G2 | E4 z4 | z2 E2 ^C2 D2 | E6 E2 | ^F8 |] %68
w: it's bet- ter|sleep, it's bet- ter|sleep|than wake and|do no|good.|
V:4
 z8 | d4 A2 B2 | A8 | z2 A2 B4- | B2 (AG) F2 G2 | A8 | z4 d4 | A2 B2 A4 | D2 d4 (cB) | A2 (G2 A4) | %10
w: |Sleep now my|muse,|and hence\-|* forth * take thy|rest,|sleep|now my muse,|and hence- forth *|take thy *|
 D4 z2 G2 | c3 c F4- | F4 F2 F2- | F2 c2 G2 A2 | D8 | A4 z4 | d4 c2 B2 | A8 | B4 A2 G2 | F4 G4 | %20
w: rest, Which|all too long|* thy- self|* in vain had|wast-|ed.|Let it suf-|fice,|let it suf-|fice, I|
 A4 B4 | c8- | c4 c4 | d8- | d4 z2 d2 | B3 B G4 | z2 g2 _e3 e | c8 | z4 z2 _e2 | c2 d2 B2 c2 | d8 | %31
w: still must|live|* op-|pressed,|* And|of my pains,|and of my|pains|the|fruit must ne'er be|tast-|
 G8 | z2 d2 B3 B | G8 | z2 B2 G2 A2 | F4 G4 | A8- | A8 | D8 | z4 d4 | A2 B2 A4 | z2 D2 F2 G2 | A8 | %43
w: ed,|and of my|pains|the fruit must|ne'er be|tast\-||ed,|Then|sleep my muse,|then sleep my|muse,|
 z2 d2 B3 B | F2 G2 d4 | z2 A2 d2 c2 | A2 A2 F2 G2 | A4 (B4 | A8-) | A8 | D8 | z4 d4 | A2 B2 A4 | %53
w: fate can- not|be with- stood;|It's bet- ter|sleep, than wake and|do no|||good.|Then|sleep my muse,|
 z2 D2 F2 G2 | A8 | z2 d2 B3 B | F2 G2 d4 | z2 A2 d2 c2 | A2 A2 F2 G2 | A4 B4 | A8 | z2 A2 d2 ^c2 | %62
w: then sleep my|muse,|fate can- not|be with- stood;|It's bet- ter|sleep than wake and|do no|good,|it's bet- ter|
 A4 z4 | z2 A2 F2 G2 | A4 (B4 | A8- | A8) | D8 |] %68
w: sleep|than wake and|do no|||good.|

